images/axion.svg

<svg height="250" viewBox="0 0 250 250" width="250" xmlns="http://www.w3.org/2000/svg" xmlns:xlink="http://www.w3.org/1999/xlink"><linearGradient id="a" gradientTransform="matrix(0 -.25 -.25 0 242.262497 242.725006)" gradientUnits="userSpaceOnUse" x1="722.150024" x2="76.110001" y1="544.650024" y2="147.080002"><stop offset="0" stop-color="#00aeef"/><stop offset="1" stop-color="#fff"/></linearGradient><linearGradient id="b" gradientTransform="matrix(0 -.25 -.25 0 242.262497 242.725006)" gradientUnits="userSpaceOnUse" x1="646.969971" x2="309.019989" y1="835.669983" y2="284.649994"><stop offset="0" stop-color="#3499cc"/><stop offset="1" stop-color="#2e3192"/></linearGradient><path d="m234.984375 56.859375v79.027344c0 5.527343-2.132813 10.75-5.75 14.046875l-27.695313 25.34375-71.085937 65.046875c-5.089844 4.660156-12.078125 4.660156-17.167969 0l-71.082031-65.046875 54.945313-50.277344 20.035156 18.335938c2.777344 2.542968 6.59375 2.542968 9.371094 0l20.039062-18.335938 54.945312-50.28125 25.101563-22.96875c3.441406-3.152344 8.34375-.148438 8.34375 5.109375zm0 0" fill="url(#a)"/><path d="m201.539062 74.71875-54.945312 50.28125-20.039062-18.335938c-2.777344-2.542968-6.59375-2.542968-9.371094 0l-20.039063 18.335938-54.941406 50.277344-24.726563 22.625-.382812.347656c-3.4375 3.148438-8.34375.144531-8.34375-5.109375v-79.023437c0-5.53125 2.132812-10.75 5.75-14.058594l27.703125-25.339844 71.074219-65.039062c5.09375-4.664063 12.089844-4.664063 17.183594 0zm0 0" fill="url(#b)"/><path d="m201.539062 74.71875-54.945312 50.277344 48.355469-56.304688zm0 0" fill="#2e3192"/><path d="m42.203125 175.277344 54.941406-50.28125-48.351562 56.3125zm0 0" fill="#00aeef"/></svg>

<svg xmlns="http://www.w3.org/2000/svg" xmlns:xlink="http://www.w3.org/1999/xlink" width="250px" height="250px" viewBox="0 0 250 250" version="1.1">
<defs>
<linearGradient id="linear0" gradientUnits="userSpaceOnUse" x1="722.150024" y1="544.650024" x2="76.110001" y2="147.080002" gradientTransform="matrix(0,-0.25,-0.25,0,242.262497,242.725006)">
<stop offset="0" style="stop-color:rgb(0%,68.235296%,93.725491%);stop-opacity:1;"/>
<stop offset="1" style="stop-color:rgb(100%,100%,100%);stop-opacity:1;"/>
</linearGradient>
<linearGradient id="linear1" gradientUnits="userSpaceOnUse" x1="646.969971" y1="835.669983" x2="309.019989" y2="284.649994" gradientTransform="matrix(0,-0.25,-0.25,0,242.262497,242.725006)">
<stop offset="0" style="stop-color:rgb(20.392157%,60.000002%,80.000001%);stop-opacity:1;"/>
<stop offset="1" style="stop-color:rgb(18.039216%,19.215687%,57.254905%);stop-opacity:1;"/>
</linearGradient>
</defs>
<g id="surface1">
<path style=" stroke:none;fill-rule:nonzero;fill:url(#linear0);" d="M 234.984375 56.859375 L 234.984375 135.886719 C 234.984375 141.414062 232.851562 146.636719 229.234375 149.933594 L 201.539062 175.277344 L 130.453125 240.324219 C 125.363281 244.984375 118.375 244.984375 113.285156 240.324219 L 42.203125 175.277344 L 97.148438 125 L 117.183594 143.335938 C 119.960938 145.878906 123.777344 145.878906 126.554688 143.335938 L 146.59375 125 L 201.539062 74.71875 L 226.640625 51.75 C 230.082031 48.597656 234.984375 51.601562 234.984375 56.859375 Z M 234.984375 56.859375 "/>
<path style=" stroke:none;fill-rule:nonzero;fill:url(#linear1);" d="M 201.539062 74.71875 L 146.59375 125 L 126.554688 106.664062 C 123.777344 104.121094 119.960938 104.121094 117.183594 106.664062 L 97.144531 125 L 42.203125 175.277344 L 17.476562 197.902344 L 17.09375 198.25 C 13.65625 201.398438 8.75 198.394531 8.75 193.140625 L 8.75 114.117188 C 8.75 108.585938 10.882812 103.367188 14.5 100.058594 L 42.203125 74.71875 L 113.277344 9.679688 C 118.371094 5.015625 125.367188 5.015625 130.460938 9.679688 Z M 201.539062 74.71875 "/>
<path style=" stroke:none;fill-rule:nonzero;fill:rgb(18.039216%,19.215687%,57.254905%);fill-opacity:1;" d="M 201.539062 74.71875 L 146.59375 124.996094 L 194.949219 68.691406 Z M 201.539062 74.71875 "/>
<path style=" stroke:none;fill-rule:nonzero;fill:rgb(0%,68.235296%,93.725491%);fill-opacity:1;" d="M 42.203125 175.277344 L 97.144531 124.996094 L 48.792969 181.308594 Z M 42.203125 175.277344 "/>
</g>
</svg>
